imgs/font_12/gt/12_01.svg

<svg xmlns="http://www.w3.org/2000/svg" xmlns:xlink="http://www.w3.org/1999/xlink" width="50px" height="50px" viewBox="0 0 24 24">
<style type="text/css">
.path {
		stroke-dasharray: 100;
		animation: dash 30s linear infinite;
}
@keyframes dash {
	to {
		stroke-dashoffset: 1000;
	}
}
</style>
<path class="path" d="m 17.988000869750977 6.634666442871094 c 2.8559999465942383 0.0 3.8878539727242725 0.9119621167443732 3.0959999561309814 3.9600000381469727 c -0.48008853133289564 1.8479770493898233 -1.0080000162124634 3.0239999294281006 -3.0 3.67199969291687 c 1.944000005722046 0.5759999752044678 2.093348697959975 1.7053598191609858 1.559999942779541 3.7920000553131104 c -0.7366177511285575 2.8818971137351093 -2.135999917984009 4.607999801635742 -5.375999927520752 4.607999801635742 l -8.15999984741211 0.0 l 3.1679999828338623 -12.288000106811523 l 0.984000027179718 -3.743999719619751 l 7.7279998660087585 2.384185791015625e-07 m -6.335999667644501 1.5839998722076416 l -1.4159998893737793 5.423999786376953 l 5.064000129699707 0.0 c 2.4000000953674316 0.0 3.30540073756476 -0.577659848730308 3.888000011444092 -2.880000114440918 c 0.49835901876499833 -1.9694360894797813 0.12000000476837158 -2.5439999103546143 -1.7999999523162842 -2.5439999103546143 l -5.736000299453735 2.384185791015625e-07 m -1.8239996433258057 7.031999826431274 l -1.5119998455047607 5.880000114440918 l 4.943999767303467 0.0 c 2.7360000610351562 0.0 3.765067682946253 -0.19275997831403657 4.48799991607666 -2.9760000705718994 c 0.43025537793503715 -1.6564540393960048 0.4560000002384186 -2.9040000438690186 -1.5839998722076416 -2.9040002822875977 l -0.5760000348091125 0.0 l -5.759999930858612 2.384185791015625e-07" fill="none" stroke="black" stroke-width="0.3">
</path>
</svg>

<svg xmlns="http://www.w3.org/2000/svg" xmlns:xlink="http://www.w3.org/1999/xlink" width="50px" height="50px" viewBox="0 0 24 24">
<style type="text/css">
.pen {
	stroke-dashoffset: 0;
	animation-duration: 5s;
	animation-iteration-count: 1000;
	animation-timing-function: ease;
}
.path00 {
		stroke-dasharray: 12;
		animation-name: dash00 
}
@keyframes dash00 {
	0% {
		stroke-dashoffset: 12;
	}
	5% {
		stroke-dashoffset: 0;
	}
}
.path01 {
		stroke-dasharray: 10;
		animation-name: dash01 
}
@keyframes dash01 {
	0%, 5% {
		stroke-dashoffset: 10;
	}
	10% {
		stroke-dashoffset: 0;
	}
}
.path02 {
		stroke-dasharray: 9;
		animation-name: dash02 
}
@keyframes dash02 {
	0%, 10% {
		stroke-dashoffset: 9;
	}
	14% {
		stroke-dashoffset: 0;
	}
}
.path03 {
		stroke-dasharray: 15;
		animation-name: dash03 
}
@keyframes dash03 {
	0%, 14% {
		stroke-dashoffset: 15;
	}
	21% {
		stroke-dashoffset: 0;
	}
}
.path04 {
		stroke-dasharray: 16;
		animation-name: dash04 
}
@keyframes dash04 {
	0%, 21% {
		stroke-dashoffset: 16;
	}
	29% {
		stroke-dashoffset: 0;
	}
}
.path05 {
		stroke-dasharray: 25;
		animation-name: dash05 
}
@keyframes dash05 {
	0%, 29% {
		stroke-dashoffset: 25;
	}
	40% {
		stroke-dashoffset: 0;
	}
}
.path06 {
		stroke-dasharray: 7;
		animation-name: dash06 
}
@keyframes dash06 {
	0%, 40% {
		stroke-dashoffset: 7;
	}
	44% {
		stroke-dashoffset: 0;
	}
}
.path07 {
		stroke-dasharray: 15;
		animation-name: dash07 
}
@keyframes dash07 {
	0%, 44% {
		stroke-dashoffset: 15;
	}
	51% {
		stroke-dashoffset: 0;
	}
}
.path08 {
		stroke-dasharray: 11;
		animation-name: dash08 
}
@keyframes dash08 {
	0%, 51% {
		stroke-dashoffset: 11;
	}
	56% {
		stroke-dashoffset: 0;
	}
}
.path09 {
		stroke-dasharray: 10;
		animation-name: dash09 
}
@keyframes dash09 {
	0%, 56% {
		stroke-dashoffset: 10;
	}
	61% {
		stroke-dashoffset: 0;
	}
}
.path10 {
		stroke-dasharray: 10;
		animation-name: dash10 
}
@keyframes dash10 {
	0%, 61% {
		stroke-dashoffset: 10;
	}
	65% {
		stroke-dashoffset: 0;
	}
}
.path11 {
		stroke-dasharray: 8;
		animation-name: dash11 
}
@keyframes dash11 {
	0%, 65% {
		stroke-dashoffset: 8;
	}
	69% {
		stroke-dashoffset: 0;
	}
}
.path12 {
		stroke-dasharray: 11;
		animation-name: dash12 
}
@keyframes dash12 {
	0%, 69% {
		stroke-dashoffset: 11;
	}
	74% {
		stroke-dashoffset: 0;
	}
}
.path13 {
		stroke-dasharray: 12;
		animation-name: dash13 
}
@keyframes dash13 {
	0%, 74% {
		stroke-dashoffset: 12;
	}
	80% {
		stroke-dashoffset: 0;
	}
}
.path14 {
		stroke-dasharray: 9;
		animation-name: dash14 
}
@keyframes dash14 {
	0%, 80% {
		stroke-dashoffset: 9;
	}
	84% {
		stroke-dashoffset: 0;
	}
}
.path15 {
		stroke-dasharray: 12;
		animation-name: dash15 
}
@keyframes dash15 {
	0%, 84% {
		stroke-dashoffset: 12;
	}
	90% {
		stroke-dashoffset: 0;
	}
}
.path16 {
		stroke-dasharray: 8;
		animation-name: dash16 
}
@keyframes dash16 {
	0%, 90% {
		stroke-dashoffset: 8;
	}
	94% {
		stroke-dashoffset: 0;
	}
}
.path17 {
		stroke-dasharray: 1;
		animation-name: dash17 
}
@keyframes dash17 {
	0%, 94% {
		stroke-dashoffset: 1;
	}
	94% {
		stroke-dashoffset: 0;
	}
}
.path18 {
		stroke-dasharray: 11;
		animation-name: dash18 
}
@keyframes dash18 {
	0%, 94% {
		stroke-dashoffset: 11;
	}
	100% {
		stroke-dashoffset: 0;
	}
}
</style>
<path class="pen path00" d="M 17.988000869750977 6.634666442871094 C 20.844000816345215 6.634666442871094 21.87585484247525 7.546628559615467 21.084000825881958 10.594666481018066 " fill="none" stroke="black" stroke-width="0.3"></path>
<path class="pen path01" d="M 21.084000825881958 10.594666481018066 C 20.603912294549062 12.44264353040789 20.076000809669495 13.618666410446167 18.084000825881958 14.266666173934937 " fill="none" stroke="black" stroke-width="0.3"></path>
<path class="pen path02" d="M 18.084000825881958 14.266666173934937 C 20.028000831604004 14.842666149139404 20.177349523841933 15.972025993095922 19.6440007686615 18.058666229248047 " fill="none" stroke="black" stroke-width="0.3"></path>
<path class="pen path03" d="M 19.6440007686615 18.058666229248047 C 18.90738301753294 20.940563342983157 17.50800085067749 22.66666603088379 14.268000841140747 22.66666603088379 " fill="none" stroke="black" stroke-width="0.3"></path>
<path class="pen path04" d="M 14.268000841140747 22.66666603088379 L 6.108000993728638 22.66666603088379 " fill="none" stroke="black" stroke-width="0.3"></path>
<path class="pen path05" d="M 6.108000993728638 22.66666603088379 L 9.2760009765625 10.378665924072266 " fill="none" stroke="black" stroke-width="0.3"></path>
<path class="pen path06" d="M 9.2760009765625 10.378665924072266 L 10.260001003742218 6.634666204452515 " fill="none" stroke="black" stroke-width="0.3"></path>
<path class="pen path07" d="M 10.260001003742218 6.634666204452515 L 17.988000869750977 6.634666442871094 " fill="none" stroke="black" stroke-width="0.3"></path>
<path class="pen path08" d="M 11.652001202106476 8.218666315078735 L 10.236001312732697 13.642666101455688 " fill="none" stroke="black" stroke-width="0.3"></path>
<path class="pen path09" d="M 10.236001312732697 13.642666101455688 L 15.300001442432404 13.642666101455688 " fill="none" stroke="black" stroke-width="0.3"></path>
<path class="pen path10" d="M 15.300001442432404 13.642666101455688 C 17.700001537799835 13.642666101455688 18.605402179997164 13.06500625272538 19.188001453876495 10.76266598701477 " fill="none" stroke="black" stroke-width="0.3"></path>
<path class="pen path11" d="M 19.188001453876495 10.76266598701477 C 19.686360472641493 8.793229897534989 19.308001458644867 8.218666076660156 17.38800150156021 8.218666076660156 " fill="none" stroke="black" stroke-width="0.3"></path>
<path class="pen path12" d="M 17.38800150156021 8.218666076660156 L 11.652001202106476 8.218666315078735 " fill="none" stroke="black" stroke-width="0.3"></path>
<path class="pen path13" d="M 9.82800155878067 15.25066614151001 L 8.31600171327591 21.130666255950928 " fill="none" stroke="black" stroke-width="0.3"></path>
<path class="pen path14" d="M 8.31600171327591 21.130666255950928 L 13.260001480579376 21.130666255950928 " fill="none" stroke="black" stroke-width="0.3"></path>
<path class="pen path15" d="M 13.260001480579376 21.130666255950928 C 15.996001541614532 21.130666255950928 17.02506916352563 20.93790627763689 17.748001396656036 18.15466618537903 " fill="none" stroke="black" stroke-width="0.3"></path>
<path class="pen path16" d="M 17.748001396656036 18.15466618537903 C 18.178256774591073 16.498212145983025 18.204001396894455 15.25066614151001 16.164001524448395 15.25066590309143 " fill="none" stroke="black" stroke-width="0.3"></path>
<path class="pen path17" d="M 16.164001524448395 15.25066590309143 L 15.588001489639282 15.25066590309143 " fill="none" stroke="black" stroke-width="0.3"></path>
<path class="pen path18" d="M 15.588001489639282 15.25066590309143 L 9.82800155878067 15.25066614151001 " fill="none" stroke="black" stroke-width="0.3"></path>
</svg>
